X:50
T:Jöns Eriks födelsedagspolska
R:Polska
Q:92
O:Boda, Dalarna
G:Fiol
S:Hans Nord
M:3/4
L:1/16
K:G
D3G B4 B2AB|d3c AcAF (G4|G3)B d4 g2fg|a3g egec (d4|d3)g f2a2 c4|
egec d2g2 B2dc|D3F A2B2 c3e|dcAF G8:||:[K:C]g2^fg a4g4|egec (G4G3)F|
E3G c2e2 g2b2|a4 f8|a2^ga b4  a4|fgfd B4 B3A|G3B d3e f3g|a4 e8|g2^fg a4g4|egec (G4G3)F|
E3G c2e2 g2^fg|b4 a8|a2^ga bafd A4|g2^fg agec G4|b3b a2ba g2ag|f2dB c8:|

